; generated by PrusaSlicer 2.2.0 on 2020-07-17 at 19:24:56 UTC

; 

; external perimeters extrusion width = 0.25mm
; perimeters extrusion width = 0.25mm
; infill extrusion width = 0.25mm
; solid infill extrusion width = 0.25mm
; top infill extrusion width = 0.25mm
; first layer extrusion width = 0.30mm

M73 P0 R95
M73 Q0 S95
M201 X1000 Y1000 Z200 E5000 ; sets maximum accelerations, mm/sec^2
M203 X200 Y200 Z12 E120 ; sets maximum feedrates, mm/sec
M204 P1250 R1250 T1250 ; sets acceleration (P, T) and retract acceleration (R), mm/sec^2
M205 X8.00 Y8.00 Z0.40 E4.50 ; sets the jerk limits, mm/sec
M205 S0 T0 ; sets the minimum extruding and travel feed rate, mm/sec
M107
M862.3 P "MK3S" ; printer model check
M862.1 P0.25 ; nozzle diameter check
M115 U3.9.0 ; tell printer latest fw version
G90 ; use absolute coordinates
M83 ; extruder relative mode
M104 S215 ; set extruder temp
M140 S60 ; set bed temp
M190 S60 ; wait for bed temp
M109 S215 ; wait for extruder temp
G28 W ; home all without mesh bed level
G80 ; mesh bed leveling
G1 Y-3.0 F1000.0 ; go outside print area
G92 E0.0
G1 X60.0 E9.0 F1000.0 ; intro line
M73 Q0 S95
M73 P0 R95
G1 X100.0 E12.5 F1000.0 ; intro line
G92 E0.0
M221 S95
G21 ; set units to millimeters
G90 ; use absolute coordinates
M83 ; use relative distances for extrusion
M900 K0.06 ; Filament gcode LA 1.5
M900 K30 ; Filament gcode LA 1.0
;BEFORE_LAYER_CHANGE
G92 E0.0
;0.1


G1 E-0.80000 F2100.00000
G1 Z0.600 F10800.000
;AFTER_LAYER_CHANGE
;0.1
G1 X104.869 Y98.349
G1 Z0.100
G1 E0.80000 F2100.00000
M204 S500
G1 F1200.000
G1 X106.477 Y96.955 E0.02465
G1 X108.422 Y95.686 E0.02689
G1 X110.522 Y94.635 E0.02720
G1 X113.177 Y93.631 E0.03286
G1 X116.044 Y92.851 E0.03441
G1 X118.464 Y92.389 E0.02853
G1 X121.583 Y92.021 E0.03637
G1 X124.803 Y91.889 E0.03732
G1 X128.001 Y91.997 E0.03706
G1 X131.105 Y92.337 E0.03615
G1 X134.140 Y92.913 E0.03577
G1 X135.730 Y93.325 E0.01903
G1 X138.295 Y94.178 E0.03131
G1 X140.440 Y95.117 E0.02712
G1 X142.891 Y96.541 E0.03282
G1 X144.722 Y97.995 E0.02707
G1 X146.201 Y99.623 E0.02547
G1 X147.177 Y101.186 E0.02134
G1 X147.809 Y102.812 E0.02020
G1 X148.103 Y104.607 E0.02106
G1 X148.101 Y105.468 E0.00998
G1 X147.978 Y106.509 E0.01214
G1 X147.448 Y108.276 E0.02136
G1 X146.538 Y109.954 E0.02210
G1 X145.331 Y111.451 E0.02227
G1 X143.651 Y112.953 E0.02610
G1 X141.649 Y114.279 E0.02780
G1 X139.702 Y115.271 E0.02531
G1 X136.983 Y116.322 E0.03375
G1 X134.903 Y116.927 E0.02509
G1 X131.779 Y117.579 E0.03696
G1 X129.206 Y117.915 E0.03005
G1 X125.835 Y118.110 E0.03911
G1 X122.512 Y118.042 E0.03849
G1 X119.190 Y117.712 E0.03865
G1 X115.981 Y117.122 E0.03779
G1 X113.024 Y116.298 E0.03555
G1 X110.571 Y115.362 E0.03041
G1 X108.546 Y114.355 E0.02619
G1 X106.420 Y112.969 E0.02940
G1 X104.868 Y111.615 E0.02385
G1 X103.519 Y109.995 E0.02441
G1 X102.642 Y108.441 E0.02067
G1 X102.099 Y106.836 E0.01963
G1 X101.886 Y105.051 E0.02081
G1 X102.059 Y103.307 E0.02029
G1 X102.612 Y101.587 E0.02092
G1 X103.491 Y100.009 E0.02092
G1 X104.845 Y98.378 E0.02455
M204 S1000
G1 F8640.000
G1 X106.477 Y96.955 E-0.50004
G1 X107.420 Y96.340 E-0.25996
G1 E-0.04000 F2100.00000
G1 Z0.700 F10800.000
G1 X102.405 Y103.043
G1 Z0.100
G1 E0.80000 F2100.00000
M204 S500
G1 F1200.000
G1 X103.009 Y101.392 E0.02035
G1 X103.923 Y99.879 E0.02047
G1 X105.348 Y98.270 E0.02489
G1 X106.676 Y97.154 E0.02009
G1 X108.590 Y95.911 E0.02643
G1 X110.636 Y94.889 E0.02648
G1 X113.284 Y93.890 E0.03278
G1 X116.108 Y93.122 E0.03389
G1 X118.504 Y92.664 E0.02825
G1 X121.603 Y92.299 E0.03613
G1 X124.802 Y92.168 E0.03707
G1 X127.984 Y92.275 E0.03687
G1 X131.069 Y92.613 E0.03593
G1 X134.082 Y93.186 E0.03552
G1 X135.646 Y93.590 E0.01872
G1 X138.195 Y94.438 E0.03110
G1 X140.310 Y95.363 E0.02674
G1 X142.733 Y96.771 E0.03245
G1 X144.512 Y98.180 E0.02628
G1 X145.975 Y99.787 E0.02517
G1 X146.924 Y101.303 E0.02071
G1 X147.538 Y102.878 E0.01957
G1 X147.824 Y104.611 E0.02035
G1 X147.823 Y105.452 E0.00973
G1 X147.704 Y106.458 E0.01173
G1 X147.191 Y108.168 E0.02068
G1 X146.308 Y109.797 E0.02146
G1 X145.145 Y111.242 E0.02148
G1 X143.483 Y112.731 E0.02584
G1 X141.508 Y114.039 E0.02742
G1 X139.590 Y115.016 E0.02493
G1 X136.893 Y116.059 E0.03349
G1 X134.838 Y116.656 E0.02479
G1 X131.736 Y117.303 E0.03669
G1 X129.182 Y117.637 E0.02984
G1 X125.833 Y117.831 E0.03884
G1 X122.526 Y117.764 E0.03831
G1 X119.231 Y117.437 E0.03835
G1 X116.040 Y116.850 E0.03756
G1 X113.110 Y116.033 E0.03523
G1 X110.683 Y115.107 E0.03008
G1 X108.684 Y114.114 E0.02585
G1 X106.585 Y112.744 E0.02902
G1 X105.052 Y111.405 E0.02357
G1 X103.744 Y109.831 E0.02369
G1 X102.878 Y108.286 E0.02051
G1 X102.566 Y107.473 E0.01008
G1 X102.312 Y106.497 E0.01169
G1 X102.167 Y104.766 E0.02011
G1 X102.400 Y103.080 E0.01971
M204 S1000
G1 F8640.000
G1 X103.009 Y101.392 E-0.41428
G1 X103.783 Y100.111 E-0.34572
G1 E-0.04000 F2100.00000
G1 Z0.700 F10800.000
G1 X102.460 Y104.471
G1 Z0.100
G1 E0.80000 F2100.00000
M204 S500
G1 F1200.000
G1 X102.762 Y102.794 E0.01973
G1 X103.393 Y101.249 E0.01933
G1 X104.330 Y99.802 E0.01997
G1 X105.591 Y98.423 E0.02164
G1 X107.254 Y97.080 E0.02475
G1 X109.176 Y95.906 E0.02609
G1 X111.533 Y94.815 E0.03008
G1 X113.375 Y94.153 E0.02266
G1 X116.169 Y93.394 E0.03353
G1 X118.545 Y92.940 E0.02802
G1 X121.628 Y92.577 E0.03594
G1 X124.804 Y92.446 E0.03682
G1 X127.963 Y92.553 E0.03660
G1 X131.033 Y92.889 E0.03576
G1 X134.023 Y93.458 E0.03526
G1 X135.559 Y93.855 E0.01837
G1 X138.094 Y94.698 E0.03094
G1 X140.177 Y95.608 E0.02632
G1 X142.573 Y96.999 E0.03209
G1 X144.284 Y98.349 E0.02524
G1 X145.751 Y99.952 E0.02516
G1 X146.670 Y101.418 E0.02004
G1 X147.266 Y102.940 E0.01893
G1 X147.542 Y104.565 E0.01909
G1 X147.477 Y106.122 E0.01804
G1 X147.043 Y107.789 E0.01995
G1 X146.263 Y109.354 E0.02025
G1 X145.170 Y110.803 E0.02102
G1 X143.745 Y112.167 E0.02283
G1 X141.882 Y113.492 E0.02648
G1 X140.223 Y114.408 E0.02195
G1 X137.679 Y115.492 E0.03202
G1 X134.811 Y116.376 E0.03476
G1 X131.725 Y117.023 E0.03652
G1 X129.157 Y117.360 E0.02999
G1 X125.827 Y117.553 E0.03863
G1 X122.544 Y117.486 E0.03803
G1 X119.267 Y117.161 E0.03813
G1 X116.104 Y116.578 E0.03724
G1 X113.165 Y115.759 E0.03533
G1 X110.749 Y114.831 E0.02998
G1 X108.126 Y113.461 E0.03427
G1 X106.227 Y112.104 E0.02703
G1 X104.915 Y110.856 E0.02097
G1 X103.740 Y109.316 E0.02243
G1 X102.980 Y107.805 E0.01959
G1 X102.527 Y106.108 E0.02034
G1 X102.462 Y104.509 E0.01853
M204 S1000
G1 X102.739 Y104.498 F10800.000
M204 S500
G1 F1200.000
G1 X103.030 Y102.870 E0.01914
G1 X103.643 Y101.373 E0.01874
G1 X104.551 Y99.971 E0.01935
G1 X105.794 Y98.615 E0.02130
G1 X107.412 Y97.310 E0.02408
G1 X109.314 Y96.149 E0.02580
G1 X111.641 Y95.072 E0.02969
G1 X113.461 Y94.418 E0.02240
G1 X116.233 Y93.665 E0.03327
G1 X118.586 Y93.215 E0.02774
G1 X121.648 Y92.855 E0.03570
G1 X124.803 Y92.725 E0.03657
G1 X127.946 Y92.831 E0.03641
G1 X130.996 Y93.165 E0.03554
G1 X133.965 Y93.730 E0.03500
G1 X135.477 Y94.121 E0.01808
G1 X137.994 Y94.958 E0.03072
G1 X140.048 Y95.855 E0.02595
G1 X142.417 Y97.229 E0.03172
G1 X144.082 Y98.542 E0.02456
G1 X145.275 Y99.797 E0.02005
G1 X146.287 Y101.288 E0.02087
G1 X146.986 Y102.976 E0.02115
G1 X147.264 Y104.579 E0.01884
G1 X147.202 Y106.077 E0.01736
G1 X146.783 Y107.689 E0.01930
G1 X146.028 Y109.206 E0.01962
G1 X144.976 Y110.602 E0.02024
G1 X143.569 Y111.951 E0.02257
G1 X141.734 Y113.257 E0.02609
G1 X140.104 Y114.157 E0.02156
G1 X137.583 Y115.230 E0.03173
G1 X134.743 Y116.106 E0.03441
G1 X131.676 Y116.748 E0.03629
G1 X129.132 Y117.082 E0.02971
G1 X125.825 Y117.274 E0.03836
G1 X122.561 Y117.208 E0.03781
G1 X119.307 Y116.885 E0.03787
G1 X116.167 Y116.307 E0.03697
G1 X113.252 Y115.494 E0.03504
G1 X110.867 Y114.579 E0.02959
G1 X108.267 Y113.221 E0.03396
G1 X106.402 Y111.887 E0.02656
G1 X105.106 Y110.652 E0.02073
G1 X103.974 Y109.166 E0.02163
G1 X103.240 Y107.705 E0.01893
G1 X102.803 Y106.067 E0.01963
G1 X102.741 Y104.535 E0.01775
M204 S1000
G1 F8640.000
G1 X103.030 Y102.870 E-0.39019
G1 X103.637 Y101.388 E-0.36981
G1 E-0.04000 F2100.00000
G1 Z0.700 F10800.000
G1 X100.407 Y105.189
G1 Z0.100
G1 E0.80000 F2100.00000
M204 S500
G1 F1200.000
G1 X100.444 Y104.112 E0.01249
G1 X100.603 Y103.031 E0.01265
G1 X100.885 Y101.967 E0.01275
G1 X101.280 Y100.938 E0.01277
G1 X101.798 Y99.921 E0.01322
G1 X102.426 Y98.946 E0.01343
G1 X103.154 Y98.022 E0.01362
G1 X103.865 Y97.257 E0.01209
G1 X104.695 Y96.488 E0.01310
G1 X105.637 Y95.733 E0.01399
G1 X106.649 Y95.030 E0.01426
G1 X107.706 Y94.388 E0.01432
G1 X108.982 Y93.716 E0.01670
G1 X109.893 Y93.293 E0.01164
G1 X110.830 Y92.900 E0.01176
G1 X111.799 Y92.535 E0.01199
G1 X112.761 Y92.209 E0.01177
G1 X113.734 Y91.913 E0.01177
G1 X114.722 Y91.645 E0.01186
G1 X115.728 Y91.403 E0.01198
G1 X116.791 Y91.179 E0.01258
G1 X118.257 Y90.921 E0.01724
G1 X119.867 Y90.701 E0.01882
G1 X121.485 Y90.543 E0.01883
G1 X123.120 Y90.445 E0.01896
G1 X124.763 Y90.408 E0.01903
G1 X126.402 Y90.431 E0.01899
G1 X128.109 Y90.519 E0.01979
G1 X129.739 Y90.667 E0.01896
G1 X131.375 Y90.878 E0.01910
G1 X132.944 Y91.145 E0.01843
G1 X134.515 Y91.479 E0.01859
G1 X136.024 Y91.867 E0.01806
G1 X137.492 Y92.317 E0.01778
G1 X138.783 Y92.778 E0.01587
G1 X139.909 Y93.237 E0.01408
G1 X140.988 Y93.734 E0.01377
G1 X142.041 Y94.282 E0.01374
G1 X142.982 Y94.833 E0.01263
G1 X143.785 Y95.358 E0.01111
G1 X144.468 Y95.852 E0.00976
G1 X145.106 Y96.359 E0.00944
G1 X145.789 Y96.965 E0.01057
G1 X146.666 Y97.859 E0.01450
G1 X147.372 Y98.716 E0.01286
G1 X148.004 Y99.635 E0.01291
G1 X148.522 Y100.562 E0.01230
G1 X148.952 Y101.548 E0.01246
G1 X149.277 Y102.568 E0.01240
G1 X149.505 Y103.708 E0.01346
G1 X149.592 Y104.784 E0.01250
G1 X149.558 Y105.871 E0.01260
G1 X149.402 Y106.945 E0.01257
G1 X149.115 Y108.038 E0.01308
G1 X148.721 Y109.065 E0.01273
G1 X148.234 Y110.029 E0.01251
G1 X147.668 Y110.926 E0.01228
G1 X146.935 Y111.881 E0.01394
G1 X146.073 Y112.811 E0.01468
G1 X145.100 Y113.692 E0.01520
G1 X144.056 Y114.496 E0.01525
G1 X142.933 Y115.240 E0.01561
G1 X141.781 Y115.900 E0.01536
G1 X140.405 Y116.579 E0.01778
G1 X139.386 Y117.019 E0.01285
G1 X138.400 Y117.399 E0.01223
G1 X137.396 Y117.746 E0.01230
G1 X136.385 Y118.059 E0.01226
G1 X135.312 Y118.352 E0.01288
G1 X134.221 Y118.615 E0.01300
G1 X133.125 Y118.843 E0.01296
G1 X132.032 Y119.038 E0.01285
G1 X130.882 Y119.211 E0.01347
G1 X129.331 Y119.391 E0.01808
G1 X127.609 Y119.525 E0.02000
G1 X125.889 Y119.591 E0.01993
G1 X124.175 Y119.590 E0.01985
G1 X122.438 Y119.522 E0.02014
G1 X120.701 Y119.386 E0.02017
G1 X119.014 Y119.184 E0.01968
G1 X117.326 Y118.912 E0.01980
G1 X115.698 Y118.577 E0.01924
G1 X114.096 Y118.173 E0.01913
G1 X112.515 Y117.692 E0.01914
G1 X111.174 Y117.212 E0.01650
G1 X109.975 Y116.718 E0.01502
G1 X108.803 Y116.169 E0.01499
G1 X107.808 Y115.640 E0.01305
G1 X106.989 Y115.156 E0.01102
G1 X106.212 Y114.646 E0.01076
G1 X105.526 Y114.151 E0.00980
G1 X104.836 Y113.598 E0.01024
G1 X103.867 Y112.709 E0.01523
G1 X103.024 Y111.789 E0.01445
G1 X102.333 Y110.885 E0.01317
G1 X101.797 Y110.039 E0.01161
G1 X101.449 Y109.384 E0.00859
G1 X101.061 Y108.493 E0.01125
G1 X100.734 Y107.482 E0.01230
G1 X100.500 Y106.338 E0.01353
G1 X100.410 Y105.227 E0.01291
M204 S1000
G1 X100.686 Y105.204 F10800.000
M204 S500
G1 F1200.000
G1 X100.720 Y104.144 E0.01228
G1 X100.874 Y103.095 E0.01228
G1 X101.152 Y102.046 E0.01257
G1 X101.537 Y101.045 E0.01242
G1 X102.043 Y100.053 E0.01289
G1 X102.656 Y99.102 E0.01311
G1 X103.369 Y98.199 E0.01332
G1 X104.058 Y97.458 E0.01172
G1 X104.873 Y96.702 E0.01287
G1 X105.800 Y95.959 E0.01376
G1 X106.797 Y95.266 E0.01406
G1 X107.840 Y94.633 E0.01413
G1 X109.103 Y93.967 E0.01653
G1 X110.008 Y93.547 E0.01156
G1 X110.935 Y93.158 E0.01164
G1 X111.890 Y92.798 E0.01182
G1 X112.845 Y92.475 E0.01167
G1 X113.813 Y92.180 E0.01172
G1 X114.793 Y91.914 E0.01176
G1 X115.791 Y91.674 E0.01188
G1 X116.846 Y91.452 E0.01248
G1 X118.297 Y91.197 E0.01707
G1 X119.896 Y90.978 E0.01869
G1 X121.510 Y90.820 E0.01877
G1 X123.129 Y90.723 E0.01878
G1 X124.761 Y90.686 E0.01891
G1 X126.396 Y90.709 E0.01893
G1 X128.092 Y90.797 E0.01967
G1 X129.711 Y90.944 E0.01883
G1 X131.337 Y91.154 E0.01898
G1 X132.895 Y91.419 E0.01831
G1 X134.454 Y91.750 E0.01845
G1 X135.952 Y92.136 E0.01792
G1 X137.407 Y92.583 E0.01763
G1 X138.686 Y93.039 E0.01572
G1 X139.800 Y93.494 E0.01394
G1 X140.869 Y93.986 E0.01362
G1 X141.909 Y94.527 E0.01359
G1 X142.832 Y95.068 E0.01239
G1 X143.625 Y95.585 E0.01096
G1 X144.302 Y96.076 E0.00969
G1 X144.930 Y96.575 E0.00929
G1 X145.594 Y97.164 E0.01027
G1 X146.455 Y98.041 E0.01424
G1 X147.146 Y98.879 E0.01258
G1 X147.764 Y99.776 E0.01262
G1 X148.269 Y100.680 E0.01199
G1 X148.689 Y101.640 E0.01213
G1 X149.005 Y102.631 E0.01204
G1 X149.230 Y103.755 E0.01328
G1 X149.314 Y104.798 E0.01212
G1 X149.280 Y105.854 E0.01224
G1 X149.130 Y106.882 E0.01203
G1 X148.848 Y107.960 E0.01290
G1 X148.469 Y108.946 E0.01222
G1 X147.995 Y109.886 E0.01220
G1 X147.443 Y110.762 E0.01199
G1 X146.726 Y111.696 E0.01364
G1 X145.872 Y112.617 E0.01454
G1 X144.917 Y113.482 E0.01493
G1 X143.890 Y114.272 E0.01500
G1 X142.783 Y115.005 E0.01538
G1 X141.647 Y115.656 E0.01516
G1 X140.285 Y116.328 E0.01759
G1 X139.278 Y116.762 E0.01270
G1 X138.307 Y117.137 E0.01206
G1 X137.311 Y117.481 E0.01219
G1 X136.309 Y117.791 E0.01215
G1 X135.241 Y118.083 E0.01283
G1 X134.158 Y118.343 E0.01290
G1 X133.070 Y118.570 E0.01286
G1 X131.985 Y118.764 E0.01276
G1 X130.843 Y118.935 E0.01338
G1 X129.307 Y119.114 E0.01791
G1 X127.596 Y119.247 E0.01987
G1 X125.887 Y119.312 E0.01981
G1 X124.178 Y119.312 E0.01979
G1 X122.451 Y119.244 E0.02001
G1 X120.726 Y119.108 E0.02004
G1 X119.050 Y118.908 E0.01955
G1 X117.373 Y118.637 E0.01966
G1 X115.757 Y118.305 E0.01910
G1 X114.168 Y117.903 E0.01899
G1 X112.606 Y117.428 E0.01891
G1 X111.271 Y116.950 E0.01642
G1 X110.084 Y116.462 E0.01486
G1 X108.924 Y115.918 E0.01483
G1 X107.947 Y115.399 E0.01282
G1 X107.139 Y114.921 E0.01087
G1 X106.367 Y114.415 E0.01069
G1 X105.692 Y113.927 E0.00965
G1 X105.020 Y113.389 E0.00996
G1 X104.068 Y112.516 E0.01496
G1 X103.233 Y111.606 E0.01430
G1 X102.559 Y110.721 E0.01288
G1 X102.035 Y109.894 E0.01133
G1 X101.702 Y109.267 E0.00822
G1 X101.323 Y108.401 E0.01095
G1 X101.005 Y107.418 E0.01196
G1 X100.777 Y106.306 E0.01315
G1 X100.690 Y105.241 E0.01237
M204 S1000
G1 X100.966 Y105.218 F10800.000
M204 S500
G1 F1200.000
G1 X100.999 Y104.162 E0.01224
G1 X101.149 Y103.143 E0.01192
G1 X101.419 Y102.125 E0.01220
G1 X101.794 Y101.152 E0.01207
G1 X102.287 Y100.187 E0.01255
G1 X102.887 Y99.259 E0.01279
G1 X103.584 Y98.376 E0.01303
G1 X104.251 Y97.659 E0.01134
G1 X105.051 Y96.916 E0.01264
G1 X105.963 Y96.185 E0.01354
G1 X106.945 Y95.502 E0.01385
G1 X107.974 Y94.877 E0.01393
G1 X109.223 Y94.219 E0.01636
G1 X110.123 Y93.800 E0.01149
G1 X111.041 Y93.416 E0.01152
G1 X111.982 Y93.061 E0.01165
G1 X112.928 Y92.740 E0.01156
G1 X113.892 Y92.447 E0.01167
G1 X114.864 Y92.184 E0.01167
G1 X115.854 Y91.946 E0.01179
G1 X116.901 Y91.725 E0.01239
G1 X118.338 Y91.472 E0.01690
G1 X119.926 Y91.255 E0.01857
G1 X121.534 Y91.098 E0.01871
G1 X123.143 Y91.002 E0.01866
G1 X124.765 Y90.965 E0.01879
G1 X126.389 Y90.988 E0.01881
G1 X128.074 Y91.075 E0.01954
G1 X129.684 Y91.221 E0.01871
G1 X131.298 Y91.430 E0.01885
G1 X132.845 Y91.693 E0.01818
G1 X134.393 Y92.022 E0.01832
G1 X135.879 Y92.405 E0.01778
G1 X137.323 Y92.848 E0.01748
G1 X138.589 Y93.301 E0.01558
G1 X139.692 Y93.750 E0.01380
G1 X140.749 Y94.237 E0.01347
G1 X141.778 Y94.773 E0.01343
G1 X142.683 Y95.303 E0.01215
G1 X143.464 Y95.813 E0.01080
G1 X144.137 Y96.299 E0.00961
G1 X144.753 Y96.791 E0.00913
G1 X145.398 Y97.362 E0.00998
G1 X146.244 Y98.223 E0.01398
G1 X146.921 Y99.042 E0.01229
G1 X147.524 Y99.918 E0.01232
G1 X148.017 Y100.798 E0.01168
G1 X148.426 Y101.731 E0.01180
G1 X148.734 Y102.693 E0.01169
G1 X148.953 Y103.785 E0.01290
G1 X149.036 Y104.813 E0.01194
G1 X149.002 Y105.837 E0.01188
G1 X148.859 Y106.819 E0.01149
G1 X148.580 Y107.882 E0.01273
G1 X148.217 Y108.826 E0.01171
G1 X147.749 Y109.755 E0.01204
G1 X147.218 Y110.597 E0.01154
G1 X146.517 Y111.512 E0.01334
G1 X145.681 Y112.414 E0.01425
G1 X144.742 Y113.264 E0.01466
G1 X143.724 Y114.048 E0.01488
G1 X142.633 Y114.770 E0.01516
G1 X141.512 Y115.412 E0.01495
